!!!COM: Palestrina, Giovanni Perluigi da
!!!OPR: Missa Eripe me de inimicis
!!!OMD: Sanctus
!!!OTL: Pleni
**kern	**kern	**kern	**kern
*Ibass	*Itenor	*Itenor	*Icalto
!Bassus	!Tenor 2	!Tenor 1	!Altus
*clefF4	*clefGv2	*clefGv2	*clefG2
*k[]	*k[]	*k[]	*k[]
*D:dor	*D:dor	*D:dor	*D:dor
*M4/2	*M4/2	*M4/2	*M4/2
=44	=44	=44	=44
0r	0r	1e	0r
.	.	2d	.
.	.	2c	.
=45	=45	=45	=45
0r	0r	1f	0r
.	.	2e	.
.	.	[2a	.
=46	=46	=46	=46
0r	1e	2a]	0r
.	.	2g	.
.	2d	2f	.
.	2c	[2e	.
=47	=47	=47	=47
1r	1f	4e]	0r
.	.	4d	.
.	.	1d	.
1A	1e	.	.
.	.	2c	.
=48	=48	=48	=48
2G	2r	2e	0r
2F	1a	2.f	.
1B-	.	.	.
.	.	4e	.
.	2g	[2d	.
=49	=49	=49	=49
2A	2f	2d]	0r
2A	2.e	2c	.
2G	.	2B-	.
.	4d	.	.
2F	[2d	2A	.
=50	=50	=50	=50
1E	2d]	2G	1r
.	2c#	2.g	.
1D	2.d	.	1a
.	.	4f	.
.	.	2f	.
.	4A	.	.
=51	=51	=51	=51
1r	2c	2e	2g
.	2d	2a	2f
2r	1G	1g	1b-
[2d	.	.	.
=52	=52	=52	=52
2d]	1A	2r	1a
2c	.	2e	.
2B-	1r	2d	2r
2A	.	2c	[2cc
=53	=53	=53	=53
1d	1r	1f	2cc]
.	.	.	2b-
1c	2r	1e	2a
.	2e	.	2g
=54	=54	=54	=54
0r	2d	1a	2f
.	2c	.	2.e
.	1f	1a	.
.	.	.	4d
.	.	.	[2d
=55	=55	=55	=55
2r	2.e	1A	2d]
2A	.	.	2c
.	4d	.	.
2G	2e	1r	2B-
2F	[2f	.	2A
=56	=56	=56	=56
1B-	4f]	1r	4d
.	4e	.	4e
.	1d	.	4f
.	.	.	4g
1A	.	1e	1a
.	2c	.	.
=57	=57	=57	=57
2D	2f	2d	[0a
2A	2.e	2c	.
2F	.	1f	.
.	4d	.	.
4E	[2d	.	.
4D	.	.	.
=58	=58	=58	=58
1A	2d]	2e	1a]
.	2c	2e	.
1D	1f	2.d	2r
.	.	.	[2a
.	.	4c	.
=59	=59	=59	=59
2r	1d	1B-	2a]
1d	.	.	2g
.	2r	1A	2f
2c	2a	.	2e
=60	=60	=60	=60
2B-	2g	2r	2d
2A	2f	1f	2c
1G	1g	.	2d
.	.	2e	2e
=61	=61	=61	=61
1F	1a	2d	2f
.	.	2c	1a
1r	2r	1B-	.
.	[2d	.	2g
=62	=62	=62	=62
1r	2d]	1A	2f
.	2c	.	2e
2r	2.f	1r	2.d
[2B-	.	.	.
.	4e	.	4e
=63	=63	=63	=63
2B-]	2d	0r	1f
2A	2c	.	.
2G	2B-	.	2e
2F	2A	.	2d
=64	=64	=64	=64
1E	2B	2r	2.g
.	2c#	1g	.
.	.	.	4a
1D	1d	.	2b-
.	.	2f	2a
=65	=65	=65	=65
0r	1G	2e	2g
.	.	1d	2f
.	1A	.	1e
.	.	2c	.
=66	=66	=66	=66
2r	2.a	2.f	4d
.	.	.	4e
1d	.	.	4f
.	4g	4e	4g
.	2f	2d	1a
2c	2e	2e	.
=67	=67	=67	=67
2B-	2d	1f	1r
2A	1f	.	.
1G	.	1g	2r
.	2e	.	[2b-
=68	=68	=68	=68
2F	1f	0r	2b-]
1f	.	.	2a
.	1c	.	1g
2e	.	.	.
=69	=69	=69	=69
2d	1r	2r	2f
2c	.	1a	2e
1B-	2r	.	1d
.	[2d	2g	.
=70	=70	=70	=70
1A	2d]	2f	1a
.	2c	2e	.
2r	1f	1d	2r
[2f	.	.	[2a
=71	=71	=71	=71
2f]	1g	1c	2a]
2e	.	.	2g
2d	1a	2r	2f
2c	.	[2a	2e
=72	=72	=72	=72
1B-	2r	2a]	2f
.	1d	2g	2g
1A	.	2f	4a
.	.	.	4b
.	2c	2e	4cc
.	.	.	4a
=73	=73	=73	=73
1D	1f	2.d	2b
.	.	.	1a
.	.	4c	.
1E	2.e	2B	.
.	.	[2e	2g#
.	4d	.	.
=74	=74	=74	=74
1.A	2c	2e]	1a
.	2B	2d	.
.	2A	2c	1e
2G	2B	2B	.
=75	=75	=75	=75
2F	2.c	1A	2f
2E	.	.	2g
.	8d	.	.
.	8e	.	.
1D	1f	1d	1a
=76	=76	=76	=76
[0A	[0e	[0c#	[0a
=77	=77	=77	=77
0A]	0e]	0c#]	0a]
*-	*-	*-	*-
!!!CDT: 1525/^1526/-1594/2/2
!!!OCY: Italia
!!!AGN: Mass (Parody)
!!!AST: renaissance, vocal
!!!ASW: Motet 1559 (Maillard)
!!!PWK: Masses, Book 4
!!!RNB: Cadence finals: A
!!!YOR: Le Opere Complete, v. 10, p. 79
!!!YOO: Rome, Italy: Fratelli Scalera
!!!END: 1992//
!!!EED: John Miller
!!!YEC: Copyright 2000, John Miller
!!!YEN: United States of America
!!!YEM: Rights to all derivative electronic formats reserved.
!!!YEM: Refer to licensing agreement for further details.
!!!YEM: This file must be accompanied by the licensing agreement.
!!!YEM: A copy of the licensing agreement may be found at http://www.music-cog.ohio-state.edu/HumdrumDatabases/Palestrina/license.txt
!!!EMD: converted to Humdrum by Bret Aarden
